X: 85
T:The Lodge Road
% Nottingham Music Database
S:Kevin Briggs, via EF
M:2/4
L:1/4
K:D
A/2|!segno! d/2d/4f/4 e/4d/4c/4B/4|A/2A/2 A/2F/2|D/4F/4A/4F/4 D/4F/4A/4F/4|\
G/2F/4G/4 E/2A/2|
d/2d/4f/4 e/4d/4c/4B/4|A/2A/2 A/2F/2|D/4F/4A/4F/4 G/2E/4F/4|D/2D/2 D/2:|
A/2|d/4e/4f/4g/4 a/4g/4f/4e/4|d/4e/4f/4g/4 a/2a/4f/4|g/2e/4g/4 f/2d/4f/4|
e/4d/4c/4B/4 A/4B/4c/4A/4|f/2f/2 g/2g/2|e/2e/2 f/2(f/4e/4)|\
d/4f/4a/4f/4 d/4f/4a/4f/4|
g/2f/4g/4 e/2z/2|f/2f/2 g/2g/2|e/2e/2 f/2(f/4e/4)|d/4f/4a/4f/4 b/4g/4e/4c/4|\
d/2d/4e/4 d/4c/4\
P:D.S.
B/4A/4||<end>
<start>
